(Created with emc2b post processor 2014/06/07 05:43)
(tool change to 6.3 mm Slot Cutter)
T2 M06 G43
G17 G90 G21
G00 Z10 S7000 M03
X46.75 Y241.75 
Z3 
G01 Z-1.9 F200 
X46.75 Y208.25  
X23.25 Y208.25  
X23.25 Y241.75  
X46.75 Y241.75  
X43.75 Y238.75  
X43.75 Y211.25  
X26.25 Y211.25  
X26.25 Y238.75  
X43.75 Y238.75  
X40.75 Y235.75  
X40.75 Y214.25  
X29.25 Y214.25  
X29.25 Y235.75  
X40.75 Y235.75  
X37.75 Y232.75  
X37.75 Y217.25  
X32.25 Y217.25  
X32.25 Y232.75  
X37.75 Y232.75  
G00 Z10 
X46.75 Y241.75 
Z1.1 
G01 Z-3.8  
X46.75 Y208.25  
X23.25 Y208.25  
X23.25 Y241.75  
X46.75 Y241.75  
X43.75 Y238.75  
X43.75 Y211.25  
X26.25 Y211.25  
X26.25 Y238.75  
X43.75 Y238.75  
X40.75 Y235.75  
X40.75 Y214.25  
X29.25 Y214.25  
X29.25 Y235.75  
X40.75 Y235.75  
X37.75 Y232.75  
X37.75 Y217.25  
X32.25 Y217.25  
X32.25 Y232.75  
X37.75 Y232.75  
G00 Z10 
X46.75 Y241.75 
Z-0.8 
G01 Z-5.7  
X46.75 Y208.25  
X23.25 Y208.25  
X23.25 Y241.75  
X46.75 Y241.75  
X43.75 Y238.75  
X43.75 Y211.25  
X26.25 Y211.25  
X26.25 Y238.75  
X43.75 Y238.75  
X40.75 Y235.75  
X40.75 Y214.25  
X29.25 Y214.25  
X29.25 Y235.75  
X40.75 Y235.75  
X37.75 Y232.75  
X37.75 Y217.25  
X32.25 Y217.25  
X32.25 Y232.75  
X37.75 Y232.75  
G00 Z10 
X46.75 Y241.75 
Z-2.7 
G01 Z-7.6  
X46.75 Y208.25  
X23.25 Y208.25  
X23.25 Y241.75  
X46.75 Y241.75  
X43.75 Y238.75  
X43.75 Y211.25  
X26.25 Y211.25  
X26.25 Y238.75  
X43.75 Y238.75  
X40.75 Y235.75  
X40.75 Y214.25  
X29.25 Y214.25  
X29.25 Y235.75  
X40.75 Y235.75  
X37.75 Y232.75  
X37.75 Y217.25  
X32.25 Y217.25  
X32.25 Y232.75  
X37.75 Y232.75  
G00 Z10 
X46.75 Y241.75 
Z-4.6 
G01 Z-9.5  
X46.75 Y208.25  
X23.25 Y208.25  
X23.25 Y241.75  
X46.75 Y241.75  
X43.75 Y238.75  
X43.75 Y211.25  
X26.25 Y211.25  
X26.25 Y238.75  
X43.75 Y238.75  
X40.75 Y235.75  
X40.75 Y214.25  
X29.25 Y214.25  
X29.25 Y235.75  
X40.75 Y235.75  
X37.75 Y232.75  
X37.75 Y217.25  
X32.25 Y217.25  
X32.25 Y232.75  
X37.75 Y232.75  
G00 Z10 
X46.75 Y241.75 
Z-6.5 
G01 Z-11.4  
X46.75 Y208.25  
X23.25 Y208.25  
X23.25 Y241.75  
X46.75 Y241.75  
X43.75 Y238.75  
X43.75 Y211.25  
X26.25 Y211.25  
X26.25 Y238.75  
X43.75 Y238.75  
X40.75 Y235.75  
X40.75 Y214.25  
X29.25 Y214.25  
X29.25 Y235.75  
X40.75 Y235.75  
X37.75 Y232.75  
X37.75 Y217.25  
X32.25 Y217.25  
X32.25 Y232.75  
X37.75 Y232.75  
G00 Z10 
X46.75 Y241.75 
Z-8.4 
G01 Z-13.3  
X46.75 Y208.25  
X23.25 Y208.25  
X23.25 Y241.75  
X46.75 Y241.75  
X43.75 Y238.75  
X43.75 Y211.25  
X26.25 Y211.25  
X26.25 Y238.75  
X43.75 Y238.75  
X40.75 Y235.75  
X40.75 Y214.25  
X29.25 Y214.25  
X29.25 Y235.75  
X40.75 Y235.75  
X37.75 Y232.75  
X37.75 Y217.25  
X32.25 Y217.25  
X32.25 Y232.75  
X37.75 Y232.75  
G00 Z10 
X46.75 Y241.75 
Z-10.3 
G01 Z-15.2  
X46.75 Y208.25  
X23.25 Y208.25  
X23.25 Y241.75  
X46.75 Y241.75  
X43.75 Y238.75  
X43.75 Y211.25  
X26.25 Y211.25  
X26.25 Y238.75  
X43.75 Y238.75  
X40.75 Y235.75  
X40.75 Y214.25  
X29.25 Y214.25  
X29.25 Y235.75  
X40.75 Y235.75  
X37.75 Y232.75  
X37.75 Y217.25  
X32.25 Y217.25  
X32.25 Y232.75  
X37.75 Y232.75  
G00 Z10 
X46.75 Y241.75 
Z-12.2 
G01 Z-17.1  
X46.75 Y208.25  
X23.25 Y208.25  
X23.25 Y241.75  
X46.75 Y241.75  
X43.75 Y238.75  
X43.75 Y211.25  
X26.25 Y211.25  
X26.25 Y238.75  
X43.75 Y238.75  
X40.75 Y235.75  
X40.75 Y214.25  
X29.25 Y214.25  
X29.25 Y235.75  
X40.75 Y235.75  
X37.75 Y232.75  
X37.75 Y217.25  
X32.25 Y217.25  
X32.25 Y232.75  
X37.75 Y232.75  
G00 Z10 
X46.75 Y241.75 
Z-14.1 
G01 Z-19  
X46.75 Y208.25  
X23.25 Y208.25  
X23.25 Y241.75  
X46.75 Y241.75  
X43.75 Y238.75  
X43.75 Y211.25  
X26.25 Y211.25  
X26.25 Y238.75  
X43.75 Y238.75  
X40.75 Y235.75  
X40.75 Y214.25  
X29.25 Y214.25  
X29.25 Y235.75  
X40.75 Y235.75  
X37.75 Y232.75  
X37.75 Y217.25  
X32.25 Y217.25  
X32.25 Y232.75  
X37.75 Y232.75  
G00 Z10 
X44.75 Y121.75 S7000 M03
Z3 
G01 Z-1.9  
X44.75 Y73.25  
X16.25 Y73.25  
X16.25 Y121.75  
X44.75 Y121.75  
X41.75 Y118.75  
X41.75 Y76.25  
X19.25 Y76.25  
X19.25 Y118.75  
X41.75 Y118.75  
X38.75 Y115.75  
X38.75 Y79.25  
X22.25 Y79.25  
X22.25 Y115.75  
X38.75 Y115.75  
X35.75 Y112.75  
X35.75 Y82.25  
X25.25 Y82.25  
X25.25 Y112.75  
X35.75 Y112.75  
X32.75 Y109.75  
X32.75 Y85.25  
X28.25 Y85.25  
X28.25 Y109.75  
X32.75 Y109.75  
G00 Z10 
X44.75 Y121.75 
Z1.1 
G01 Z-3.8  
X44.75 Y73.25  
X16.25 Y73.25  
X16.25 Y121.75  
X44.75 Y121.75  
X41.75 Y118.75  
X41.75 Y76.25  
X19.25 Y76.25  
X19.25 Y118.75  
X41.75 Y118.75  
X38.75 Y115.75  
X38.75 Y79.25  
X22.25 Y79.25  
X22.25 Y115.75  
X38.75 Y115.75  
X35.75 Y112.75  
X35.75 Y82.25  
X25.25 Y82.25  
X25.25 Y112.75  
X35.75 Y112.75  
X32.75 Y109.75  
X32.75 Y85.25  
X28.25 Y85.25  
X28.25 Y109.75  
X32.75 Y109.75  
G00 Z10 
X44.75 Y121.75 
Z-0.8 
G01 Z-5.7  
X44.75 Y73.25  
X16.25 Y73.25  
X16.25 Y121.75  
X44.75 Y121.75  
X41.75 Y118.75  
X41.75 Y76.25  
X19.25 Y76.25  
X19.25 Y118.75  
X41.75 Y118.75  
X38.75 Y115.75  
X38.75 Y79.25  
X22.25 Y79.25  
X22.25 Y115.75  
X38.75 Y115.75  
X35.75 Y112.75  
X35.75 Y82.25  
X25.25 Y82.25  
X25.25 Y112.75  
X35.75 Y112.75  
X32.75 Y109.75  
X32.75 Y85.25  
X28.25 Y85.25  
X28.25 Y109.75  
X32.75 Y109.75  
G00 Z10 
X44.75 Y121.75 
Z-2.7 
G01 Z-7.6  
X44.75 Y73.25  
X16.25 Y73.25  
X16.25 Y121.75  
X44.75 Y121.75  
X41.75 Y118.75  
X41.75 Y76.25  
X19.25 Y76.25  
X19.25 Y118.75  
X41.75 Y118.75  
X38.75 Y115.75  
X38.75 Y79.25  
X22.25 Y79.25  
X22.25 Y115.75  
X38.75 Y115.75  
X35.75 Y112.75  
X35.75 Y82.25  
X25.25 Y82.25  
X25.25 Y112.75  
X35.75 Y112.75  
X32.75 Y109.75  
X32.75 Y85.25  
X28.25 Y85.25  
X28.25 Y109.75  
X32.75 Y109.75  
G00 Z10 
X44.75 Y121.75 
Z-4.6 
G01 Z-9.5  
X44.75 Y73.25  
X16.25 Y73.25  
X16.25 Y121.75  
X44.75 Y121.75  
X41.75 Y118.75  
X41.75 Y76.25  
X19.25 Y76.25  
X19.25 Y118.75  
X41.75 Y118.75  
X38.75 Y115.75  
X38.75 Y79.25  
X22.25 Y79.25  
X22.25 Y115.75  
X38.75 Y115.75  
X35.75 Y112.75  
X35.75 Y82.25  
X25.25 Y82.25  
X25.25 Y112.75  
X35.75 Y112.75  
X32.75 Y109.75  
X32.75 Y85.25  
X28.25 Y85.25  
X28.25 Y109.75  
X32.75 Y109.75  
G00 Z10 
X44.75 Y121.75 
Z-6.5 
G01 Z-11.4  
X44.75 Y73.25  
X16.25 Y73.25  
X16.25 Y121.75  
X44.75 Y121.75  
X41.75 Y118.75  
X41.75 Y76.25  
X19.25 Y76.25  
X19.25 Y118.75  
X41.75 Y118.75  
X38.75 Y115.75  
X38.75 Y79.25  
X22.25 Y79.25  
X22.25 Y115.75  
X38.75 Y115.75  
X35.75 Y112.75  
X35.75 Y82.25  
X25.25 Y82.25  
X25.25 Y112.75  
X35.75 Y112.75  
X32.75 Y109.75  
X32.75 Y85.25  
X28.25 Y85.25  
X28.25 Y109.75  
X32.75 Y109.75  
G00 Z10 
X44.75 Y121.75 
Z-8.4 
G01 Z-13.3  
X44.75 Y73.25  
X16.25 Y73.25  
X16.25 Y121.75  
X44.75 Y121.75  
X41.75 Y118.75  
X41.75 Y76.25  
X19.25 Y76.25  
X19.25 Y118.75  
X41.75 Y118.75  
X38.75 Y115.75  
X38.75 Y79.25  
X22.25 Y79.25  
X22.25 Y115.75  
X38.75 Y115.75  
X35.75 Y112.75  
X35.75 Y82.25  
X25.25 Y82.25  
X25.25 Y112.75  
X35.75 Y112.75  
X32.75 Y109.75  
X32.75 Y85.25  
X28.25 Y85.25  
X28.25 Y109.75  
X32.75 Y109.75  
G00 Z10 
X44.75 Y121.75 
Z-10.3 
G01 Z-15.2  
X44.75 Y73.25  
X16.25 Y73.25  
X16.25 Y121.75  
X44.75 Y121.75  
X41.75 Y118.75  
X41.75 Y76.25  
X19.25 Y76.25  
X19.25 Y118.75  
X41.75 Y118.75  
X38.75 Y115.75  
X38.75 Y79.25  
X22.25 Y79.25  
X22.25 Y115.75  
X38.75 Y115.75  
X35.75 Y112.75  
X35.75 Y82.25  
X25.25 Y82.25  
X25.25 Y112.75  
X35.75 Y112.75  
X32.75 Y109.75  
X32.75 Y85.25  
X28.25 Y85.25  
X28.25 Y109.75  
X32.75 Y109.75  
G00 Z10 
X44.75 Y121.75 
Z-12.2 
G01 Z-17.1  
X44.75 Y73.25  
X16.25 Y73.25  
X16.25 Y121.75  
X44.75 Y121.75  
X41.75 Y118.75  
X41.75 Y76.25  
X19.25 Y76.25  
X19.25 Y118.75  
X41.75 Y118.75  
X38.75 Y115.75  
X38.75 Y79.25  
X22.25 Y79.25  
X22.25 Y115.75  
X38.75 Y115.75  
X35.75 Y112.75  
X35.75 Y82.25  
X25.25 Y82.25  
X25.25 Y112.75  
X35.75 Y112.75  
X32.75 Y109.75  
X32.75 Y85.25  
X28.25 Y85.25  
X28.25 Y109.75  
X32.75 Y109.75  
G00 Z10 
X44.75 Y121.75 
Z-14.1 
G01 Z-19  
X44.75 Y73.25  
X16.25 Y73.25  
X16.25 Y121.75  
X44.75 Y121.75  
X41.75 Y118.75  
X41.75 Y76.25  
X19.25 Y76.25  
X19.25 Y118.75  
X41.75 Y118.75  
X38.75 Y115.75  
X38.75 Y79.25  
X22.25 Y79.25  
X22.25 Y115.75  
X38.75 Y115.75  
X35.75 Y112.75  
X35.75 Y82.25  
X25.25 Y82.25  
X25.25 Y112.75  
X35.75 Y112.75  
X32.75 Y109.75  
X32.75 Y85.25  
X28.25 Y85.25  
X28.25 Y109.75  
X32.75 Y109.75  
G00 Z10 
T0 M06 M02
