(Created with emc2b post processor 2014/07/25 05:14)
O1(Program 1)
(tool change to 1.4 mm End Mill)
T9 M06 G43
G17 G90 G21
(Sketch 27)
G00 X35.55 Y39.5 S7000 M03
Z3 
G01 Z-0.5 F100 
X35.55 Y16.7  
X9.45 Y16.7  
X9.45 Y62.3  
X35.55 Y62.3  
X35.55 Y39.5  
Z-1  
X35.55 Y16.7  
X9.45 Y16.7  
X9.45 Y62.3  
X35.55 Y62.3  
X35.55 Y39.5  
Z-1.5  
X35.55 Y16.7  
X9.45 Y16.7  
X9.45 Y62.3  
X35.55 Y62.3  
X35.55 Y39.5  
Z-2  
X35.55 Y16.7  
X9.45 Y16.7  
X9.45 Y62.3  
X35.55 Y62.3  
X35.55 Y39.5  
G00 Z10 
G90
(Circle 29)
X4.434 Y74.565 S7000 M03
Z3 
G01 Z-0.5  
G02 X5 Y74.8 I0.565 J-0.565  
X5.8 Y74 I0 J-0.8  
X5 Y73.2 I-0.8 J0  
X4.2 Y74 I0 J0.8  
X4.434 Y74.565 I0.8 J0  
G01 Z-1  
G02 X5 Y74.8 I0.565 J-0.565  
X5.8 Y74 I0 J-0.8  
X5 Y73.2 I-0.8 J0  
X4.2 Y74 I0 J0.8  
X4.434 Y74.565 I0.8 J0  
G01 Z-1.5  
G02 X5 Y74.8 I0.565 J-0.565  
X5.8 Y74 I0 J-0.8  
X5 Y73.2 I-0.8 J0  
X4.2 Y74 I0 J0.8  
X4.434 Y74.565 I0.8 J0  
G01 Z-2  
G02 X5 Y74.8 I0.565 J-0.565  
X5.8 Y74 I0 J-0.8  
X5 Y73.2 I-0.8 J0  
X4.2 Y74 I0 J0.8  
X4.434 Y74.565 I0.8 J0  
G00 Z10 
G90
(Circle 30)
X39.434 Y74.565 S7000 M03
Z3 
G01 Z-0.5  
G02 X40 Y74.8 I0.565 J-0.565  
X40.8 Y74 I0 J-0.8  
X40 Y73.2 I-0.8 J0  
X39.2 Y74 I0 J0.8  
X39.434 Y74.565 I0.8 J0  
G01 Z-1  
G02 X40 Y74.8 I0.565 J-0.565  
X40.8 Y74 I0 J-0.8  
X40 Y73.2 I-0.8 J0  
X39.2 Y74 I0 J0.8  
X39.434 Y74.565 I0.8 J0  
G01 Z-1.5  
G02 X40 Y74.8 I0.565 J-0.565  
X40.8 Y74 I0 J-0.8  
X40 Y73.2 I-0.8 J0  
X39.2 Y74 I0 J0.8  
X39.434 Y74.565 I0.8 J0  
G01 Z-2  
G02 X40 Y74.8 I0.565 J-0.565  
X40.8 Y74 I0 J-0.8  
X40 Y73.2 I-0.8 J0  
X39.2 Y74 I0 J0.8  
X39.434 Y74.565 I0.8 J0  
G00 Z10 
G90
(Circle 31)
X4.434 Y5.565 S7000 M03
Z3 
G01 Z-0.5  
G02 X5 Y5.8 I0.565 J-0.565  
X5.8 Y5 I0 J-0.8  
X5 Y4.2 I-0.8 J0  
X4.2 Y5 I0 J0.8  
X4.434 Y5.565 I0.8 J0  
G01 Z-1  
G02 X5 Y5.8 I0.565 J-0.565  
X5.8 Y5 I0 J-0.8  
X5 Y4.2 I-0.8 J0  
X4.2 Y5 I0 J0.8  
X4.434 Y5.565 I0.8 J0  
G01 Z-1.5  
G02 X5 Y5.8 I0.565 J-0.565  
X5.8 Y5 I0 J-0.8  
X5 Y4.2 I-0.8 J0  
X4.2 Y5 I0 J0.8  
X4.434 Y5.565 I0.8 J0  
G01 Z-2  
G02 X5 Y5.8 I0.565 J-0.565  
X5.8 Y5 I0 J-0.8  
X5 Y4.2 I-0.8 J0  
X4.2 Y5 I0 J0.8  
X4.434 Y5.565 I0.8 J0  
G00 Z10 
G90
(Circle 32)
X39.434 Y5.565 S7000 M03
Z3 
G01 Z-0.5  
G02 X40 Y5.8 I0.565 J-0.565  
X40.8 Y5 I0 J-0.8  
X40 Y4.2 I-0.8 J0  
X39.2 Y5 I0 J0.8  
X39.434 Y5.565 I0.8 J0  
G01 Z-1  
G02 X40 Y5.8 I0.565 J-0.565  
X40.8 Y5 I0 J-0.8  
X40 Y4.2 I-0.8 J0  
X39.2 Y5 I0 J0.8  
X39.434 Y5.565 I0.8 J0  
G01 Z-1.5  
G02 X40 Y5.8 I0.565 J-0.565  
X40.8 Y5 I0 J-0.8  
X40 Y4.2 I-0.8 J0  
X39.2 Y5 I0 J0.8  
X39.434 Y5.565 I0.8 J0  
G01 Z-2  
G02 X40 Y5.8 I0.565 J-0.565  
X40.8 Y5 I0 J-0.8  
X40 Y4.2 I-0.8 J0  
X39.2 Y5 I0 J0.8  
X39.434 Y5.565 I0.8 J0  
G00 Z10 
G90
(Sketch 28)
X45.7 Y39.5 S7000 M03
Z3 
G01 Z-0.5  
X45.7 Y79  
G03 X45 Y79.7 I-0.7 J0  
G01 X0 Y79.7  
G03 X-0.7 Y79 I0 J-0.7  
G01 X-0.7 Y0  
G03 X0 Y-0.7 I0.7 J0  
G01 X45 Y-0.7  
G03 X45.7 Y0 I0 J0.7  
G01 X45.7 Y39.5  
Z-1  
X45.7 Y79  
G03 X45 Y79.7 I-0.7 J0  
G01 X0 Y79.7  
G03 X-0.7 Y79 I0 J-0.7  
G01 X-0.7 Y0  
G03 X0 Y-0.7 I0.7 J0  
G01 X45 Y-0.7  
G03 X45.7 Y0 I0 J0.7  
G01 X45.7 Y39.5  
Z-1.5  
X45.7 Y79  
G03 X45 Y79.7 I-0.7 J0  
G01 X0 Y79.7  
G03 X-0.7 Y79 I0 J-0.7  
G01 X-0.7 Y0  
G03 X0 Y-0.7 I0.7 J0  
G01 X45 Y-0.7  
G03 X45.7 Y0 I0 J0.7  
G01 X45.7 Y39.5  
Z-2  
X45.7 Y79  
G03 X45 Y79.7 I-0.7 J0  
G01 X0 Y79.7  
G03 X-0.7 Y79 I0 J-0.7  
G01 X-0.7 Y0  
G03 X0 Y-0.7 I0.7 J0  
G01 X45 Y-0.7  
G03 X45.7 Y0 I0 J0.7  
G01 X45.7 Y39.5  
G00 Z10 
T0 M06 M02
